X: 217
T: Dong sinu
%%abc-version 2.0
%%abcx-abcm2ps-target-version 5.9.1 (29 Sep 2008)
%%abc-creator hum2abc beta
%%abcx-conversion-date 2013/10/02 07:52:29
%%abc-edited-by Helmut Schaffrath
%%humdrum-veritas 1141437126
%%humdrum-veritas-data 452675627
%%continueall 1
%%barnumbers 0
L: 1/8
M: 4/4
K: C
d g e g d c d e [I:setbarnb 1]| 
ge2d2<c2A | 
d g e g d e d c | 
dA2GE4 | 
GG2Ac2e g | 
ed2GA4 | 
ed2c d g e d | 
dG2A2<c2A | 
G A G ED4 |]  



